Simply-Green-Circles/scalable/apps/addressbook.svg

<svg xmlns="http://www.w3.org/2000/svg" width="48" height="48" viewBox="0 0 12.7 12.7"><path fill="#2ca02c" d="M6.34.07a6.29 6.29 0 0 0-6.29 6.3 6.29 6.29 0 0 0 6.3 6.28 6.29 6.29 0 0 0 6.28-6.29A6.29 6.29 0 0 0 6.34.07zm-.01.94a5.4 5.4 0 0 1 5.4 5.4 5.4 5.4 0 0 1-5.4 5.41 5.4 5.4 0 0 1-5.41-5.4A5.4 5.4 0 0 1 6.32 1zm.1 1.24a4 4 0 0 0-1.54.3 3.96 3.96 0 0 0-2.16 2.21 4.22 4.22 0 0 0-.3 1.59c0 .57.1 1.11.3 1.61a3.88 3.88 0 0 0 2.16 2.2 4.03 4.03 0 0 0 4.08-.62L8.5 8.8a2.93 2.93 0 0 1-.95.58 3.1 3.1 0 0 1-1.12.21 3.2 3.2 0 0 1-1.23-.23 3.02 3.02 0 0 1-1.02-.68 3.19 3.19 0 0 1-.69-1.05 3.46 3.46 0 0 1-.23-1.28c0-.55.12-1.07.36-1.54a3.09 3.09 0 0 1 1.9-1.56 3.38 3.38 0 0 1 2.35.16A2.82 2.82 0 0 1 9.32 5c.08.26.12.55.12.85 0 .48-.1.87-.31 1.18-.21.3-.5.49-.87.55V4.4h-.92V5a1.05 1.05 0 0 0-.43-.5 1.27 1.27 0 0 0-.7-.2c-.5 0-.91.2-1.23.58-.32.38-.48.87-.48 1.48s.16 1.1.48 1.49c.32.37.73.56 1.24.56.26 0 .5-.06.69-.17.2-.13.34-.3.43-.51v.7h.17c.88 0 1.56-.23 2.04-.68.48-.46.72-1.1.72-1.93a3.45 3.45 0 0 0-.67-2.07 3.6 3.6 0 0 0-1.36-1.12 4.1 4.1 0 0 0-1.8-.4zm-.06 2.92c.27 0 .48.1.64.32.16.21.24.5.24.87s-.08.67-.24.89a.74.74 0 0 1-.63.32.74.74 0 0 1-.63-.32 1.51 1.51 0 0 1-.23-.89c0-.37.07-.66.23-.87a.74.74 0 0 1 .62-.32z"/></svg>

<?xml version="1.0" encoding="UTF-8" standalone="no"?>
<svg
   xmlns:dc="http://purl.org/dc/elements/1.1/"
   xmlns:cc="http://creativecommons.org/ns#"
   xmlns:rdf="http://www.w3.org/1999/02/22-rdf-syntax-ns#"
   xmlns:svg="http://www.w3.org/2000/svg"
   xmlns="http://www.w3.org/2000/svg"
   xmlns:sodipodi="http://sodipodi.sourceforge.net/DTD/sodipodi-0.dtd"
   xmlns:inkscape="http://www.inkscape.org/namespaces/inkscape"
   width="48"
   height="48"
   viewBox="0 0 12.7 12.7"
   version="1.1"
   id="svg4"
   sodipodi:docname="addressbook.svg"
   inkscape:version="0.92.4 (5da689c313, 2019-01-14)">
  <metadata
     id="metadata10">
    <rdf:RDF>
      <cc:Work
         rdf:about="">
        <dc:format>image/svg+xml</dc:format>
        <dc:type
           rdf:resource="http://purl.org/dc/dcmitype/StillImage" />
        <dc:title></dc:title>
      </cc:Work>
    </rdf:RDF>
  </metadata>
  <defs
     id="defs8" />
  <sodipodi:namedview
     pagecolor="#ffffff"
     bordercolor="#666666"
     borderopacity="1"
     objecttolerance="10"
     gridtolerance="10"
     guidetolerance="10"
     inkscape:pageopacity="0"
     inkscape:pageshadow="2"
     inkscape:window-width="1087"
     inkscape:window-height="480"
     id="namedview6"
     showgrid="false"
     inkscape:zoom="4.9166667"
     inkscape:cx="2.1355932"
     inkscape:cy="24"
     inkscape:window-x="0"
     inkscape:window-y="25"
     inkscape:window-maximized="0"
     inkscape:current-layer="svg4" />
  <path
     d="M 6.34,0.07 A 6.29,6.29 0 0 0 0.05,6.37 6.29,6.29 0 0 0 6.35,12.65 6.29,6.29 0 0 0 12.63,6.36 6.29,6.29 0 0 0 6.34,0.07 Z M 6.33,1.01 a 5.4,5.4 0 0 1 5.4,5.4 5.4,5.4 0 0 1 -5.4,5.41 A 5.4,5.4 0 0 1 0.92,6.42 5.4,5.4 0 0 1 6.32,1 Z m 0.1,1.24 A 4,4 0 0 0 4.89,2.55 3.96,3.96 0 0 0 2.73,4.76 4.22,4.22 0 0 0 2.43,6.35 c 0,0.57 0.1,1.11 0.3,1.61 a 3.88,3.88 0 0 0 2.16,2.2 4.03,4.03 0 0 0 4.08,-0.62 L 8.5,8.8 A 2.93,2.93 0 0 1 7.55,9.38 3.1,3.1 0 0 1 6.43,9.59 3.2,3.2 0 0 1 5.2,9.36 3.02,3.02 0 0 1 4.18,8.68 3.19,3.19 0 0 1 3.49,7.63 3.46,3.46 0 0 1 3.26,6.35 C 3.26,5.8 3.38,5.28 3.62,4.81 A 3.09,3.09 0 0 1 5.52,3.25 3.38,3.38 0 0 1 7.87,3.41 2.82,2.82 0 0 1 9.32,5 C 9.4,5.26 9.44,5.55 9.44,5.85 9.44,6.33 9.34,6.72 9.13,7.03 8.92,7.33 8.63,7.52 8.26,7.58 V 4.4 H 7.34 V 5 A 1.05,1.05 0 0 0 6.91,4.5 1.27,1.27 0 0 0 6.21,4.3 C 5.71,4.3 5.3,4.5 4.98,4.88 4.66,5.26 4.5,5.75 4.5,6.36 c 0,0.61 0.16,1.1 0.48,1.49 0.32,0.37 0.73,0.56 1.24,0.56 0.26,0 0.5,-0.06 0.69,-0.17 0.2,-0.13 0.34,-0.3 0.43,-0.51 v 0.7 h 0.17 c 0.88,0 1.56,-0.23 2.04,-0.68 0.48,-0.46 0.72,-1.1 0.72,-1.93 A 3.45,3.45 0 0 0 9.6,3.75 3.6,3.6 0 0 0 8.24,2.63 4.1,4.1 0 0 0 6.44,2.23 Z M 6.37,5.17 c 0.27,0 0.48,0.1 0.64,0.32 0.16,0.21 0.24,0.5 0.24,0.87 0,0.37 -0.08,0.67 -0.24,0.89 A 0.74,0.74 0 0 1 6.38,7.57 0.74,0.74 0 0 1 5.75,7.25 1.51,1.51 0 0 1 5.52,6.36 C 5.52,5.99 5.59,5.7 5.75,5.49 A 0.74,0.74 0 0 1 6.37,5.17 Z"
     id="path2"
     inkscape:connector-curvature="0"
     style="fill:#2ca02c" />
</svg>
